src/assets/svgs/refactor/arrow-right.svg

<svg fill="none" height="16" viewBox="0 0 21 16" width="21" xmlns="http://www.w3.org/2000/svg"><path d="m21 8.00267-8.3996 7.99733v-2.7067l4.5767-4.35752c-5.7251-.08013-11.45204.31876-17.1565267.05877l-.02057369-1.96951c5.68391039.23862 11.34730039-.1389 17.03120039-.06055l-4.4308-4.21858v-2.74591055l8.3996 7.99733055z" fill="#fff8f3"/></svg>

<svg width="21" height="16" viewBox="0 0 21 16" fill="none" xmlns="http://www.w3.org/2000/svg">
<path d="M21 8.00267L12.6004 16L12.6004 13.2933L17.1771 8.93578C11.452 8.85565 5.72506 9.25454 0.0205733 8.99455L-3.92308e-07 7.02504C5.68391 7.26366 11.3473 6.88614 17.0312 6.96449L12.6004 2.74591L12.6004 -5.5078e-07L21 7.99733L21 8.00267Z" fill="#FFF8F3"/>
</svg>
